!!!COM: Music21
!!!OTL: barndance_Serena-Notte
!!!OMV: barndance_Serena-Notte
**kern
*clefG2
*k[f#]
*G:
*M4/4
=1
2b
8bL
16aL
16bJJ
8.ccL
16f#Jk
=
2g
2g
=
2b
8bL
16aL
16bJJ
8.ccL
16f#Jk
=
2g
2g
=
2cc
8ccL
8gJ
8gL
8aJ
=
2b
8bL
8ddJ
12ddL
12cc
12bJ
=
2a
8aL
8bJ
8.ccL
16f#Jk
=
2g
2g
!!linebreak:original
=||
*M4/4
2b
8bL
16aL
16bJJ
8.ccL
16f#Jk
=
2g
2g
=
2b
8bL
16aL
16bJJ
8.ccL
16f#Jk
=
2g
2g
=
2cc
8ccL
8gJ
8gL
8aJ
=
2b
8bL
8ddJ
12ddL
12cc
12bJ
=
2a
8aL
8bJ
8.ccL
16f#Jk
=
2g
2g
!!linebreak:original
=||
2ee
8eeL
8ff#J
8ggL
8eeJ
=
2dd
8ddL
8ggJ
8ff#L
8eeJ
=
4dd
8ddL
8ggJ
8ff#L
8ggJ
8aaL
8ff#J
=
2gg
8ggL
8ddJ
8ggL
8ff#J
=
2ee
8eeL
8ff#J
8ggL
8eeJ
=
2dd
8ddL
8ggJ
8ff#L
8eeJ
=
4dd
8ddL
8ggJ
8ff#L
8ggJ
8aaL
8ff#J
!!linebreak:original
=
2gg
2gg
=||
2ee
8eeL
8ff#J
8ggL
8eeJ
=
2dd
8ddL
8ggJ
8ff#L
8eeJ
=
4dd
8ddL
8ggJ
8ff#L
8ggJ
8aaL
8ff#J
=
2gg
8ggL
8ddJ
8ggL
8ff#J
=
2ee
8eeL
8ff#J
8ggL
8eeJ
=
2dd
8ddL
8ggJ
8ff#L
8eeJ
!!linebreak:original
=
4dd
8ddL
8ggJ
8ff#L
8ggJ
8aaL
8ff#J
=
2gg
2gg
=||
*-
